X:27
T:Green Grow the Rashes o' #3
C:Joe Buchanan's Scottish Tome - Page 415.1
I:415 1
Z:Carl Allison
R:Barndance
L:1/8
M:4/4
K:G
"G"G2 "Em"(B>A) A>GG>A  | "Am"(A>e)e>d (e>A)A>B |
"C"c>de>c "G"B>cd>B | "Am"A>cB>A "Em"G<E E2 | :|
"G"G2 g>f (g>d)d>g | "Am"e>aa>^g (a>e)e>f |
"G"g>ag>e (d>B)G>B | "Am"A>cB>A "Em"(G<E) E2 :|

